svgs/light/gun-slash.svg

<svg xmlns="http://www.w3.org/2000/svg" viewBox="0 0 640 512"><!--! Font Awesome Pro 6.3.0 by @fontawesome - https://fontawesome.com License - https://fontawesome.com/license (Commercial License) Copyright 2023 Fonticons, Inc. --><path d="M215.9 448l-119.6-.832l40.46-157.6C141.6 272.6 138.9 255 130.1 240h66.33l-40.53-32H75.17C69 208 64 203 64 196.8V135.4L32 110.2v86.66C32 220.7 51.33 240 75.17 240c21.26 0 36.61 20.35 30.77 40.79l-40.69 158.4C59.41 459.7 74.76 480 96.02 480h119.8c14.29 0 26.84-9.469 30.77-23.21l38.78-146.6l-27.38-21.61L215.9 448zM576 96v80h-77.26l-31.1 32h-104.2l57.82 45.64L424.9 240h41.87c8.486 0 16.62-3.373 22.63-9.373L512 208h64c17.67 0 32-14.33 32-32V96c0-17.67-14.33-32-32-32h-32V48C544 39.16 536.8 32 528 32S512 39.16 512 48V64H180.1l40.53 32H576zM633.9 483.4L25.92 3.422c-6.938-5.453-17-4.25-22.48 2.641c-5.469 6.938-4.281 17 2.641 22.48l608 480C617 510.9 620.5 512 623.1 512c4.734 0 9.422-2.094 12.58-6.078C642 498.1 640.8 488.9 633.9 483.4z"/></svg>

<svg xmlns="http://www.w3.org/2000/svg" viewBox="0 0 640 512"><!-- Font Awesome Pro 6.0.0-alpha2 by @fontawesome - https://fontawesome.com License - https://fontawesome.com/license (Commercial License) --><path d="M215.864 448L96.247 447.168L136.712 289.582C141.569 272.574 138.89 255 130.118 240H196.448L155.917 208H75.173C69.003 208 64.001 203 64.001 196.828V135.43L32.001 110.168V196.828C32.001 220.672 51.329 240 75.173 240H75.175C96.435 240 111.784 260.348 105.942 280.793L65.253 439.207C59.411 459.652 74.761 480 96.021 480H215.864C230.151 480 242.706 470.531 246.632 456.793L285.415 310.238L258.036 288.625L215.864 448ZM576.001 96V176H498.745L466.747 208H362.509L420.325 253.645L424.874 240H466.747C475.234 240 483.372 236.629 489.374 230.629L512.001 208H576.001C593.675 208 608.001 193.672 608.001 176V96C608.001 78.328 593.675 64 576.001 64H544.001V48C544.001 39.164 536.837 32 528.001 32S512.001 39.164 512.001 48V64H180.116L220.65 96H576.001ZM633.925 483.438L25.921 3.422C18.984 -2.031 8.921 -0.828 3.437 6.062C-2.032 13 -0.845 23.062 6.077 28.547L614.081 508.562C617.019 510.875 620.519 512 623.987 512C628.722 512 633.409 509.906 636.566 505.922C642.034 498.984 640.847 488.922 633.925 483.438Z"/></svg>
